X: 20
T:Walsh's Hornpipe [in A]
M:4/4
L:1/8
R:Hornpipe
K:A
cB[|:(3ABc EF Ace2|(3def Bc def2|fece aecA|(3Bcd cA BAF2|!
(3ABc EF Ace2|(3def Bc def2|fece aecA|1(3Bcd cB A2cB:|2(3Bcd cB A2 (3ef
g|!
|:aece fece|aece fecB|ABce fecA|(3Bcd cA BAF2|!
(3ABc EF Ace2|(3def Bc def2|fece aecA|1(3Bcd cB A2 (3efg:|2(3Bcd cB
 A2cB|]!
